img/fun.svg

<svg width="424" height="331" viewBox="0 0 424 331" fill="none" xmlns="http://www.w3.org/2000/svg">
<path d="M422.727 4.95843C422.084 3.82786 421.22 2.84031 420.187 2.05561C419.154 1.2709 417.974 0.705374 416.717 0.393261L416.707 0.390363L416.692 0.387469C416.687 0.385538 416.681 0.38264 416.676 0.383606C416.514 0.343406 416.351 0.307994 416.188 0.277416C416.18 0.278381 416.177 0.275487 416.171 0.274521L416.158 0.272592C414.44 -0.0511517 412.666 0.105781 411.03 0.726307L6.36672 146.137C4.60694 146.769 3.06886 147.904 1.9414 149.404C0.81393 150.903 0.146173 152.701 0.020141 154.577C-0.105891 156.453 0.31529 158.325 1.23195 159.964C2.14862 161.602 3.52085 162.936 5.1801 163.8L87.7458 206.843L116.495 336.86C116.753 338.14 117.269 339.353 118.01 340.425C118.371 340.948 118.781 341.433 119.233 341.872C121.019 343.609 123.406 344.58 125.89 344.579H125.938C128.333 344.571 130.638 343.659 132.397 342.023L210.323 269.738L295.857 313.177C297.051 313.782 298.357 314.13 299.692 314.198C301.027 314.266 302.362 314.053 303.61 313.572C304.858 313.09 305.993 312.352 306.941 311.404C307.889 310.455 308.63 309.318 309.116 308.065L423.291 13.4072C423.843 12.0487 424.079 10.5814 423.981 9.11713C423.883 7.65289 423.454 6.23047 422.727 4.95843ZM33.5775 156.86L324.692 52.2522L95.8142 189.305L33.5775 156.86ZM131.445 218.827L131.442 218.834L131.438 218.842C131.435 218.847 131.432 218.852 131.43 218.857V218.858L131.426 218.866C131.426 218.867 131.425 218.869 131.424 218.87L131.42 218.88L131.418 218.883L131.412 218.894L131.411 218.896C130.894 219.935 130.568 221.059 130.45 222.215L123.31 278.789L107.01 205.068L283.502 99.3829L134.286 215.447C133.091 216.336 132.118 217.493 131.445 218.827ZM138.723 309.896L147.797 237.985L192.028 260.448L138.723 309.896ZM295.075 291.154L213.239 249.594C213.102 249.52 212.962 249.449 212.822 249.382L157.893 221.487L392.9 38.6919L295.075 291.154Z" fill="white"/>
</svg>

<svg width="424" height="331" viewBox="0 0 424 331" fill="none" xmlns="http://www.w3.org/2000/svg"><path d="M422.727 4.958a9.612 9.612 0 0 0-2.54-2.902 9.534 9.534 0 0 0-3.47-1.663l-.01-.003-.015-.003c-.005-.001-.011-.004-.016-.003a8.65 8.65 0 0 0-.488-.107c-.008.001-.011-.002-.017-.002l-.013-.002a9.498 9.498 0 0 0-5.128.453L6.367 146.137a9.593 9.593 0 0 0-4.426 3.267 9.705 9.705 0 0 0-.71 10.56 9.618 9.618 0 0 0 3.95 3.836l82.565 43.043 28.749 130.017a9.61 9.61 0 0 0 1.515 3.565 9.694 9.694 0 0 0 1.223 1.447 9.542 9.542 0 0 0 6.657 2.707h.048a9.53 9.53 0 0 0 6.459-2.556l77.926-72.285 85.534 43.439a9.56 9.56 0 0 0 7.753.395 9.604 9.604 0 0 0 3.331-2.168 9.675 9.675 0 0 0 2.175-3.339L423.291 13.407a9.68 9.68 0 0 0-.564-8.449zM33.577 156.86L324.692 52.252 95.814 189.305 33.578 156.86zm97.868 61.967l-.003.007-.004.008-.008.015v.001l-.004.008a.008.008 0 0 1-.002.004l-.004.01-.002.003-.006.011-.001.002a9.65 9.65 0 0 0-.961 3.319l-7.14 56.574-16.3-73.721L283.502 99.383 134.286 215.447a9.603 9.603 0 0 0-2.841 3.38zm7.278 91.069l9.074-71.911 44.231 22.463-53.305 49.448zm156.352-18.742l-81.836-41.56a9.6 9.6 0 0 0-.417-.212l-54.929-27.895L392.9 38.692l-97.825 252.462z" fill="#fff"/></svg>
